X: 40223
T: Tiny Clanger's
R: jig
M: 6/8
K: Gmajor
|:D|GBd gfe|^d2 e ^c2 =d|DFA e2 d|DFA c2 B|
GB/c/d gfe|^d2 e ^c2 =d|DFA cBA|G3- G2:|
|:A|FGA cdf|gab d2 g|1 fga dcA|Bcd G2 D|
FF/G/A cdf|gab d2 g|fga dcA|G3- G2:|
[2 fga dcB|AA/B/c dd/e/f|GB/c/d gfe|^d2 e ^c2 =d|DFA cBA|G3- G2||

